X: 112102
Q: "Reel."
M: C
L: 1/8
K: D
f |\
abaf defd | ebba beef |
abaf defe | dBAF ADDf |\
abaf defd | ebba beef |\
abef dgfe | dBAF ADD |]


